X:30
T:O Dear What Can the Matter Be. TJD.30
M:6/8
L:1/8
Q:3/8=120
N:Key signature incorrectly given as D in MS
S:T.J.Dixon MS1, Lincolnshire, 1798
R:jig
A:Lincolnshire, Holton le Moor
Z:vmp.R.Greig2010
K:G
“^Key D in MS”d3d3|dBg dBG|c3c3|cAB cBA|d3d3|dBg dBG|EGc BcA|”^as writ”G2z2:|!
|:d2|(dBc) dBc|dBg dBG|cAB cAB|cAB cBA|dBc dBc|dBg dBG|EGc BcA|G4:|

